icons/fill-new-office-doc-file-ai.svg

<svg xmlns="http://www.w3.org/2000/svg" width="32px" height="32px" viewBox="0 0 32 32" version="1.1">
    <title>fill-new-office-doc-file-ai</title>
    <g id="fill-new-office-doc-file-ai" stroke-width="1" fill-rule="evenodd">
        <path d="M28,25 L28,29 C28,29.5522847 27.5522847,30 27,30 L5,30 C4.44771525,30 4,29.5522847 4,29 L4,25 L28,25 Z M29,10 C29.5522847,10 30,10.4477153 30,11 L30,22 C30,22.5522847 29.5522847,23 29,23 L3,23 C2.44771525,23 2,22.5522847 2,22 L2,11 C2,10.4477153 2.44771525,10 3,10 L29,10 Z M22.5,12.5 L17.5,12.5 L17.5,14.5 L19,14.5 L19,18.5 L17.5,18.5 L17.5,20.5 L22.5,20.5 L22.5,18.5 L21,18.5 L21,14.5 L22.5,14.5 L22.5,12.5 Z M13.176,12.4996917 L10.823,12.4996917 L8.601,20.4996917 L10.676,20.4996917 L10.9544821,19.4996917 L13.0454821,19.4996917 L13.323,20.4996917 L15.399,20.4996917 L13.176,12.4996917 Z M12,15.736 L12.4894821,17.4996917 L11.5094821,17.4996917 L12,15.736 Z M20.0857864,2 C20.3510029,2 20.6053568,2.10535684 20.7928932,2.29289322 L26.5,8 L4,8 L4,3 C4,2.48716416 4.38604019,2.06449284 4.88337887,2.00672773 L5,2 L20.0857864,2 Z" id="&#24418;&#29366;" />
    </g>
</svg>

<svg xmlns="http://www.w3.org/2000/svg" viewBox="0 0 32 32"><path fill="currentColor" d="M28 25v4a1 1 0 0 1-1 1H5a1 1 0 0 1-1-1v-4zm1-15a1 1 0 0 1 1 1v11a1 1 0 0 1-1 1H3a1 1 0 0 1-1-1V11a1 1 0 0 1 1-1zm-6.5 2.5h-5v2H19v4h-1.5v2h5v-2H21v-4h1.5zm-9.324 0h-2.353l-2.222 8h2.075l.278-1h2.091l.278 1h2.076zM12 15.736l.49 1.764h-.98zM20.086 2a1 1 0 0 1 .707.293L26.5 8H4V3a1 1 0 0 1 .883-.993L5 2z"/></svg>
